// adapted from https://github.com/schollz/workshops

// don't forget to BOOT!

//////// a ////////
// to play samples we first need to load a sample into a "buffer" using a file or recording

// ~someBuffer=Buffer.read(s,<filename>) will read the file into the buffer ~someBuffer
// on server "s"
~buffer=Buffer.read(s,thisProcess.nowExecutingPath.dirname++"/kalimba.wav");

// play the buffer
~buffer.play;
// plot the buffer
~buffer.plot;


//////// b ////////
// lets play the buffer using the PlayBuf "UGen"

(
{
	var snd; // define a variable to hold our sound
	snd=PlayBuf.ar( // PlayBuf will play a sound in a buffer
		numChannels:2, // we are dealing with stereo samples, so 2 channels
		bufnum:~buffer, // the buffer
		/* mess with rate: -0.2, */
		loop:1,
	);
	Out.ar(0,snd); // send to Out UGen to channel 0 (default speakers)
}.play; // .play will play the sound immediately!
)


//////// c ////////
// lets record into a buffer
// define a new buffer that is 3 seconds long
~buffer=Buffer.alloc(s,s.sampleRate*3,2);
// then define a function to record into that buffer
(
{
	RecordBuf.ar(SoundIn.ar([0])!2, ~buffer, loop:0, doneAction:2)
}.play; // .play will play this synth that records from the input audio
)
// lets see if it worked!
~buffer.play;
~buffer.plot;
// TRY! try recording and plotting/playing your recording



//////// d ////////
// lets define how our sample will playback
// first we will define what is called a "SynthDef", a synth definition
// SynthDef(<name>,<function>).add
(
SynthDef("musicbox", {
	// buffers have an index, and the buffer index will be supplied later using

	arg bufnum = 0;
	var snd;

	snd=PlayBuf.ar(
		numChannels:2,
		bufnum:bufnum,
		loop: 1,                     // loop forever
		rate:BufRateScale.kr(bufnum) // BufRateScale will calculate the
	);                               // difference between the server sampling and the audio file

	Out.ar(0,snd);
}).add; // .add will add it to our server to be used anytime we want!
)


//////// e  ////////
// now let's play our defined synth using the "Synth" function
// we can then create a synth that plays the sound!
~syn=Synth("musicbox",[\bufnum,~buffer]);
~syn.free; // will stop playing


//////// f ////////
// now lets create a synthdef with some modulation
(
SynthDef("musicbox", {

	arg bufnum = 0;

	var snd;
	var rate;

	rate = BufRateScale.kr(bufnum)*MouseX.kr(0.9,1.1); // use the mouse to modulate the rate

	snd=PlayBuf.ar(
		numChannels:2,
		bufnum:bufnum,
		loop: 1,
		rate: rate,
	);

	snd = Pan2.ar(snd,LFNoise2.kr(1)); // use "LFNoise2" to modulate panning randomly

	snd[0] = snd[0] * LFPar.ar(5).range(0,1); // use "LFPar" to modulate the amplitude
	snd[1] = snd[1] * LFPar.ar(5.1).range(0,1); // use "LFPar" to modulate the amplitude slightly differently

	Out.ar(0,snd);
}).add; // .add will add it to our server to be used anytime we want!
)

~buffer=Buffer.read(s,thisProcess.nowExecutingPath.dirname++"/musicbox.wav");

x=Synth("musicbox", [\bufnum, ~buffer]); // will start playing

// TRY! try putting the modulation you created into this synthdef and playing


//////// g ////////
// lets modify our synth with some EFFECTS!
// there are many effects
// filters: RLPF, LPF, HPF, BPF
// delays: CombC, DelayC
// distortion: .tanh, .softclip, .distort
(
SynthDef("musicbox", {
	// buffers have an index, and the buffer index will be supplied later using
	// an argument, "arg":
	arg bufnum = 0;
	// after arguments, we will declare variables that we will use with "var":
	var snd;

	snd=PlayBuf.ar(
		numChannels:2,
		bufnum:bufnum,
		loop: 1,                     // loop forever
		rate:BufRateScale.kr(bufnum) // BufRateScale will calculate the
	);                               // difference between the server sampling

	snd = Pan2.ar(snd,LFNoise2.kr(1)); // pans randomly left and right

	snd = RLPF.ar(snd, MouseX.kr(10,20000,1),0.5); // effects controlled by mouse!

	snd = CombC.ar(snd,0.5,MouseY.kr(0.05,0.5)); // add delay

	snd = (snd * SinOsc.kr(0.1).range(1,10)).tanh * 0.1; // add distortion

	Out.ar(0,snd);
}).add; // .add will add it to our server to be used anytime we want!
)

~buffer=Buffer.read(s,thisProcess.nowExecutingPath.dirname++"/musicbox.wav");

x=Synth("musicbox", [\bufnum, ~buffer]); // will start playing

// TRY! change up the effects, the filters, the distortion, the modulation

s.record(numChannels:2);
s.stopRecording;

Duty

////////////////
// __   __  _______  _______
// |  | |  ||  _    ||       |
// |  | |  || |_|   ||    ___|
// |  |_|  ||       ||   |___
// |       ||  _   | |    ___|
// |       || |_|   ||   |___
// |_______||_______||_______|
//
// ube is a little tool made to play with all these ideas:
// it is a "macrogranulator" that modulates all sorts of things of buffers
// and does recording/playback with the buffers
//
// before running this you must first save `Ube.sc` to the extensions directory.
// open `Ube.sc` in SuperCollider.
// now save it by doing `File -> Save As Extension...` and type `Ube.sc`.

// to run this code, but a cursor anywhere in the code block (a code block is enclosed in parentheses)
// and hit <Ctrl>+Enter

// if you run into trouble, restart everything <Ctrl>+<Shift>+L and then <Ctrl>+Enter
(
s.waitForBoot({
	var pairs;

	// define the "looper"
	SynthDef("looper",{
		// main arguments
		arg buf,tape,player,baseRate=1.0,amp=1.0,timescale=0.2;
		// variables to store UGens later
		var volume;
		var switch=0,snd,snd1,snd2,pos,pos1,pos2,posStart,posEnd,index;
		// store the number of frames and the duraiton
		var frames=BufFrames.kr(buf);
		var duration=BufDur.kr(buf);

		// LFO for the start point
		var lfoStart=SinOsc.kr(timescale/Rand(30,60),Rand(hi:2*pi)).range(1024,frames-10240);

		// LFO for the window lenth
		var lfoWindow=SinOsc.kr(timescale/Rand(60,120),Rand(hi:2*pi)).range(4096,frames/2);

		// LFO for the rate (right now its not an LFO)
		var lfoRate=baseRate;

		// LFO for switching between forward and reverse
		var lfoForward=Demand.kr(Impulse.kr(timescale/Rand(5,15)),0,Drand([0,1],inf));

		// LFO for the volume
		var lfoAmp=SinOsc.kr(timescale/Rand(10,30),Rand(hi:2*pi)).range(0.05,0.5);

		// LFO for the panning
		var lfoPan=SinOsc.kr(timescale/Rand(10,30),Rand(hi:2*pi)).range(-1,1);

		// calculate the final rate
		var rate=Lag.kr(lfoRate*(2*lfoForward-1),1)*BufRateScale.kr(buf);

		// modulate the start/stop
		posStart = lfoStart;
		posEnd = Clip.kr(posStart + lfoWindow,0,frames-1024);

		// LocalIn collects the a trigger whenever the playhead leaves the window
		switch=ToggleFF.kr(LocalIn.kr(1));

		// playhead 1 has a play position and buffer reader
		pos1=Phasor.ar(trig:1-switch,rate:rate,end:frames,resetPos:((lfoForward>0)*posStart)+((lfoForward<1)*posEnd));
		snd1=BufRd.ar(2,buf,pos1,1.0,4);

		// playhead 2 has a play position and buffer reader
		pos2=Phasor.ar(trig:switch,  rate:rate,end:frames,resetPos:((lfoForward>0)*posStart)+((lfoForward<1)*posEnd));
		snd2=BufRd.ar(2,buf,pos2,1.0,4);

		// current position changes according to the swtich
		pos=Select.ar(switch,[pos1,pos2]);

		// send out a trigger anytime the position is outside the window
		LocalOut.kr(
			Changed.kr(Stepper.kr(Impulse.kr(20),max:1000000000,
				step:(pos>posEnd)+(pos<posStart)
			))
		);

		// crossfade bewteen the two sounds over 50 milliseconds
		snd=SelectX.ar(Lag.kr(switch,0.05),[snd1,snd2]);

		// apply the volume lfo
		volume = amp*lfoAmp*EnvGen.ar(Env.new([0,1],[Rand(1,10)],4));

		// send data to the GUI
		SendReply.kr(Impulse.kr(25),"/position",[tape,player,posStart/frames,posEnd/frames,pos/frames,volume,(lfoPan+1)/2]);

		// do the panning
		snd=Balance2.ar(snd[0],snd[1],lfoPan);

		snd = CombC.ar(snd,0.5,Rand(0.05,0.5),2); // random delay

		// final output
		Out.ar(0,snd*volume/5);
	}).send(s);

	// basic players
	SynthDef("recorder",{
		arg buf,recLevel=1.0,preLevel=0.0;
		RecordBuf.ar(SoundIn.ar([0,1]),buf,0.0,recLevel,preLevel,loop:0,doneAction:2);
	}).send(s);

	// effects
	SynthDef("effects",{
		arg amp=1.0;

		// collect the sound coming from the bus "0" on 2 channels (stereo)
		var snd=In.ar(0,2);

		// add some delay
		snd = CombC.ar(snd,0.5,delaytime:0.25,decaytime:1.1);

		// add some reverb
		snd = SelectX.ar(LFNoise2.kr(1/3).range(0.1,0.5),[
			snd,
			FreeVerb2.ar(snd[0],snd[1],50)
			//Fverb.ar(snd[0],snd[1],50,decay:LFNoise2.kr(1/3).range(70,90))
		]);

		// replace the output with the effected output
		ReplaceOut.ar(0,snd*Lag.kr(amp));
	}).send(s);

	// load the ube class
	u=Ube.new(Server.default);

	Routine {
		// either load a file into the tape
		u.loadTape(tape:1,filename:thisProcess.nowExecutingPath.dirname++"/whale.wav");
		// OR record another tape and play it
		// u.recordTape(tape:1,seconds:3,recLevel:2); 3.5.wait;

		0.5.wait; // give time for buffer to load
		// create players to play the tape
		u.playTape(tape:1,player:0,rate:1,db:0,timescale:1);
		u.playTape(tape:1,player:1,rate:0.5,db:3,timescale:1.0);
		u.playTape(tape:1,player:2,rate:0.25,db:6,timescale:1.0);
		u.playTape(tape:1,player:3,rate:0.125,db:9,timescale:1.0);
		u.playTape(tape:1,player:4,rate:2,db:-6,timescale:1.0);
		u.playTape(tape:1,player:5,rate:4,db:-12,timescale:1.0);
		// show gui
		u.gui;

	}.play;



});
)

// TRY IT! load your own sounds, record your own sounds
// change the modulation, change the effects

